X:51
T:Crosses of Annagh* 2 (reel), The 
B:CRE2.226 (gan ainm)
F:file ID: cre.2/051cross_a_2
N:This version is from piper Felix Doran.
M:C
R:reel
Q:180
K:Am
AG|EABG A2Bd|egg2 edBA|G3B AEGE|DEGB AGED|
EABG A2Bd|egg2 edBA|G2Bd (3ege dB|GABG A2:|
Bd|eaa2 ba (3g^fg|aaab gedB|d3e g3b|agab g2ag|
eaa2 ba (3g^fg|aaab g2ag|edea gedB|GABG A2:|

%%%

